X: 1
T: Jack's Rake
M: 6/8
L: 1/8
R: jig
K: Dmaj
|:dga fgf |efg f2 d |dBd Ace |GBd c2 d |
dga fgf |efg f2 d |dBd Ace |1 dBd d3 :|2 dBd d2 B ||
BdB BFB |BdB fdB |FAF dAF |DFA dAF |
BdB BFB |BdB fdB |Adf afd |dAF A2 B |
BdB BFB |BdB fdB |FAF dAF |DFA dAF |
BdB BFB |BdB fdB |Ace ecA |Ace A3|
